X:1
T:Title
%%score [ 1 2 3 4 ]
L:1/8
Q:1/4=120
M:4/4
K:C
V:1 treble nm="MusicXML Part"
V:2 treble-8 nm="MusicXML Part"
V:3 bass nm="MusicXML Part"
V:4 treble nm="MusicXML Part"
V:1
 z4 | z8 x8 | z8 x8 | z8 x8 | z8 x8 ||[K:Eb][M:4/2][K:treble-8] E4 E4 G6 G2 | F4 F4 z4 F4 | %7
 B6 B2 (B2 c2) (B2 A2) | G8 z4 G4 | c4 c4 c6 c2 | c8 G4 c4 | c6 c2 B4 e4 | c8 z4 c4 | d4 d4 d6 d2 | %14
 e8 _d4 d4 | c6 c2 c4 =B4 | c8 z4 G4 | A6 A2 A4 G4 | G8 z4 |] %19
V:2
[K:Eb]"^Der alte Barbarossa" C4 | C6 D2 E6 D2 | C4 C4 z4 E4 | %3
w: Der|a- lte Bar- ba-|ro- sse, der|
w: Er|hat hi- nab- ge-|no- mmen des|
w: Sein|Bart ist nicht von|Fla- chse, er|
w: Er|spricht im Schlaf zum|Kna- ben: geh|
"^Friedrich Silcher (1789-1860)\nText: F. Rückert (1788-1866)" G6 E2 G6 F2 | E8 z4 E4 || %5
w: Kai- ser Frie- de-|rich, im|
w: Rei- ches Herr- lich-|keit und|
w: ist von Feu- er-|sglut, ist|
w: hin vor's Schloß, o|Zwerg, und|
[M:4/2] E4 E4 G6 G2 | F4 F4 z4 F4 | F6 F2 F4 F4 | G8 z4 G4 | G4 G4 A6 A2 | G8 G4 G4 | A6 A2 G4 B4 | %12
w: un- ter- ird- schen|Schlo- sse hält|er ver- zau- bert|sich. Er|ist nie- mals ge-|stor- ben, er|lebt da- rin noch|
w: wird einst wie- der-|ko- mmen mit|ihr zu sei- ner|Zeit. Der|Stuhl ist el- fen-|bei- nern, da-|rauf der Kai- ser|
w: durch den Tisch ge-|wach- sen, wo-|rauf sein Kinn aus-|ruht. Er|nickt als wie im|Trau- me, sein|Aug' halb o- ffen|
w: sieh, ob noch die|Ra- ben her-|flie- gen um den|Berg. Und|wenn die al- ten|Ra- ben noch|flie- gen i- mmer-|
 A8 z4 c4 | c4 c4 =B6 B2 | c8 A4 A4 | G6 G2 G4 G4 | G8 z4 E4 | E6 E2 F4 F4 | E8 z4 |] %19
w: jetzt, er|hat im Schloss ver-|bor- gen zum|Schlaf sich hin- ge-|setzt, zum|Schlaf sich hin- ge-|setzt.|
w: sitzt, der|Tisch ist mar- mel-|stei- nern, wo-|rauf sein Haupt er|stützt, wo-|rauf sein Haupt er|stützt.|
w: zwinkt, und|je nach lan- gem|Rau- me, er|ei- nem Kna- ben|winkt, er|ei- nem Kna- ben|winkt.|
w: dar, so|muss ich auch noch|schla- fen ver-|zau- bert hun- dert|Jahr', ver-|zau- bert hun- dert|Jahr.|
V:3
[K:Eb] C,4 | C,6 D,2 E,6 D,2 | C,4 C,4 z4 C,4 | E,6 C,2 E,6 D,2 | C,8 z4 C,4 || %5
[M:4/2] C,4 C,4 E,6 E,2 | E,4 E,4 z4 E,4 | D,6 D,2 D,4 D,4 | E,8 z4 E,4 | E,4 E,4 F,6 F,2 | %10
 E,8 E,4 E,4 | E,6 E,2 E,4 G,4 | E,8 z4 A,4 | A,4 A,4 G,6 G,2 | G,8 F,4 F,4 | E,6 E,2 D,4 D,4 | %16
 E,8 z4 C,4 | C,6 C,2 C,4 =B,,4 | C,8 z4 |] %19
V:4
 z4 | z8 x8 | z8 x8 | z8 x8 | z8 x8 ||[K:Eb][M:4/2][K:bass] C,4 C,4 B,,6 =A,,2 | %6
 B,,4 B,,4 z4 B,,4 | B,,6 B,,2 B,,4 B,,4 | E,8 z4 E,2 D,2 | C,4 C,4 C,6 C,2 | C,8 C,4 C,4 | %11
 A,,6 A,,2 E,4 E,4 | A,,8 z4 A,4 | F,4 F,4 G,6 G,2 | C,8 F,,4 F,,4 | G,,6 G,,2 G,,4 G,,4 | %16
 C,8 z4 C,4 | A,,6 A,,2 F,,4 G,,4 | C,8 z4 |] %19

